X:1
T:Come Fill Up Your Glasses
M:3/4
L:1/4
K:G
 D| G G G| G D B,| C B, A,| G,2 G| A D B| A D F| G/2 F3/2 E| D2 D/2C/2|\
 B, G G| G/2 D3/2 B,| C A A| D2G/2-A/2| Bc/2-B/2A/2-G/2| A E G| D E F|\
 G3| D3| C3| B, G G| G D B,| C A A| D2|G/2-A/2| Bc/2-B/2A/2-G/2| A E G|\
 D E F| G2||
